X:0066
T:Lango Lee. New way.
N:adapted from Leslie's March?
M:6/8
L:1/8
Q:3/8=120
I: :: ::
% A B ^c d e ^f g a b c' ^c' d'
Z:Jack Campin * www.campin.me.uk * 2009
K:D
d3  f3   |ede fdB|ABc d2{ga}b|agf   e2d |
d3  f3   |ede fdB|ABc d2{ga}b|agf   e2d:|
fga ab=c'|bag fed|fga aba    |bd'c' d'3 |
dfa d'c'b|agf e2d|dAd dAd    |dgf   e2d |
d3  f3   |ede fdB|ABc d2{ga}b|agf   e2d:|
<end>
<start>
